X: 1896
T: Steamer
C:Chris Moore, circa 1980
B: australian traditional tunes wiki
M:6/8
L:1/8
R: Jig
Q: 3/8=100
K:A
V:1 
"A"A2A e2e|"E"dcB "A"A2A|a2a e2e|"D"def "E7"edB|
"A"A2A e2e|"E"dcB "A"A2A|a2e "D" fed|"E"edB "A"A3:|
|:"A"eAA "D"d2f|"A"edc Bcd|eAA"D"d2 f|"A" edc "E"Bcd|
"A"eAA "D"d2f|"A"edc "D"Bdf|"A"a2e "D" fed|"E"edB "A"A3:|
% abcbook-tune_id 6342d53a5e952b30a56bf80e


% abcbook-boost 0
% abcbook-tablature 
% abcbook-transpose 
% abcbook-lastupdated 1665324391342
% abcbook-soundfonts 
% abcbook-repeats 1
% NFF Book 2018

